public/images/hashed/ed7b63e7f85eabf610bbe26b744b340c.svg

<svg xmlns="http://www.w3.org/2000/svg" width="80" height="80"><defs><linearGradient id="a" x1="0%" x2="100%" y1="100%" y2="0%"><stop offset="0%" stop-color="#B0084D"/><stop offset="100%" stop-color="#FF4F8B"/></linearGradient></defs><g fill="none" fill-rule="evenodd"><path fill="url(#a)" d="M0 0h80v80H0z"/><path fill="#FFF" d="M20.137 51.603a22.955 22.955 0 0 1-2.271-5.33l1.924-.545a20.906 20.906 0 0 0 2.074 4.865l-1.727 1.01Zm-.347-17.33-1.924-.545a22.958 22.958 0 0 1 2.212-5.229l1.731 1.002a20.923 20.923 0 0 0-2.019 4.772Zm11.619-13.441-.818-1.824A22.817 22.817 0 0 1 40 17c3.278 0 6.444.676 9.409 2.008l-.818 1.824A20.844 20.844 0 0 0 40 19c-2.993 0-5.884.617-8.591 1.832Zm28.513 7.667a22.958 22.958 0 0 1 2.212 5.229l-1.924.545a20.875 20.875 0 0 0-2.018-4.772l1.73-1.002Zm.288 17.229 1.924.545a22.932 22.932 0 0 1-2.212 5.228l-1.73-1.002a20.868 20.868 0 0 0 2.018-4.771ZM48.591 59.169l.818 1.824A22.81 22.81 0 0 1 40 63c-3.277 0-6.443-.675-9.409-2.007l.818-1.824A20.843 20.843 0 0 0 40 61c2.993 0 5.884-.616 8.591-1.831ZM25 59c-1.654 0-3-1.345-3-3 0-1.654 1.346-3 3-3 1.655 0 3 1.346 3 3 0 1.655-1.345 3-3 3Zm0-8c-2.757 0-5 2.244-5 5 0 2.757 2.243 5 5 5s5-2.243 5-5c0-2.756-2.243-5-5-5Zm30 8c-1.654 0-3-1.345-3-3 0-1.654 1.346-3 3-3 1.655 0 3 1.346 3 3 0 1.655-1.345 3-3 3Zm0-8c-2.757 0-5 2.244-5 5 0 2.757 2.243 5 5 5s5-2.243 5-5c0-2.756-2.243-5-5-5ZM16 40c0-1.654 1.346-3 3-3 1.655 0 3 1.346 3 3 0 1.655-1.345 3-3 3-1.654 0-3-1.345-3-3Zm7.899 1h4.695l-1.299 1.291 1.41 1.418 3-2.982a.998.998 0 0 0 .004-1.415l-3-3.017-1.418 1.411L28.578 39h-4.679A5.009 5.009 0 0 0 19 35c-2.757 0-5 2.244-5 5 0 2.757 2.243 5 5 5a5.008 5.008 0 0 0 4.899-4ZM62 43c-1.654 0-3-1.345-3-3 0-1.654 1.346-3 3-3 1.655 0 3 1.346 3 3 0 1.655-1.345 3-3 3Zm0-8c-2.757 0-5 2.244-5 5 0 2.757 2.243 5 5 5s5-2.243 5-5c0-2.756-2.243-5-5-5ZM25 21c1.655 0 3 1.346 3 3 0 1.655-1.345 3-3 3-1.654 0-3-1.345-3-3 0-1.654 1.346-3 3-3Zm0 8c2.757 0 5-2.243 5-5 0-2.756-2.243-5-5-5s-5 2.244-5 5c0 2.757 2.243 5 5 5Zm30-8c1.655 0 3 1.346 3 3 0 1.655-1.345 3-3 3-1.654 0-3-1.345-3-3 0-1.654 1.346-3 3-3Zm0 8c2.757 0 5-2.243 5-5 0-2.756-2.243-5-5-5s-5 2.244-5 5c0 2.757 2.243 5 5 5Zm-4.6 13.201L51.999 41H48v-2h4l-1.599-1.199L51.6 36.2l4 2.999a1 1 0 0 1 .001 1.6l-4 3.001-1.201-1.599Zm-4.545 3.667c-1.799-.696-3.827-1.044-5.855-1.044-2.027 0-4.055.348-5.854 1.044.681-1.743 1.047-3.745 1.047-5.868 0-2.122-.366-4.124-1.047-5.867 3.597 1.392 8.111 1.392 11.709 0-.682 1.743-1.047 3.745-1.047 5.867 0 2.123.365 4.125 1.047 5.868Zm3.852 2.425c-1.815-1.815-2.899-4.915-2.899-8.293 0-3.377 1.084-6.477 2.899-8.293a.996.996 0 0 0 0-1.414 1 1 0 0 0-1.414 0c-3.875 3.875-12.711 3.875-16.586 0a1 1 0 0 0-1.414 1.414c1.816 1.816 2.9 4.916 2.9 8.293 0 3.378-1.084 6.478-2.9 8.293a1 1 0 0 0 1.414 1.414c3.875-3.875 12.711-3.875 16.586 0A.995.995 0 0 0 49 50a.993.993 0 0 0 .707-.293.996.996 0 0 0 0-1.414Z"/></g></svg>

<?xml version="1.0" encoding="UTF-8"?>
<svg width="80px" height="80px" viewBox="0 0 80 80" version="1.1" xmlns="http://www.w3.org/2000/svg" xmlns:xlink="http://www.w3.org/1999/xlink">
    <!-- Generator: Sketch 64 (93537) - https://sketch.com -->
    <title>Icon-Architecture/64/Arch_Amazon-MQ_64</title>
    <desc>Created with Sketch.</desc>
    <defs>
        <linearGradient x1="0%" y1="100%" x2="100%" y2="0%" id="linearGradient-1">
            <stop stop-color="#B0084D" offset="0%"></stop>
            <stop stop-color="#FF4F8B" offset="100%"></stop>
        </linearGradient>
    </defs>
    <g id="Icon-Architecture/64/Arch_Amazon-MQ_64" stroke="none" stroke-width="1" fill="none" fill-rule="evenodd">
        <g id="Icon-Architecture-BG/64/Application-Integration" fill="url(#linearGradient-1)">
            <rect id="Rectangle" x="0" y="0" width="80" height="80"></rect>
        </g>
        <path d="M20.137,51.603 C19.158,49.93 18.394,48.136 17.866,46.273 L19.79,45.728 C20.272,47.429 20.969,49.065 21.864,50.593 L20.137,51.603 Z M19.79,34.273 L17.866,33.728 C18.383,31.903 19.127,30.144 20.078,28.499 L21.809,29.501 C20.941,31.001 20.262,32.607 19.79,34.273 L19.79,34.273 Z M31.409,20.832 L30.591,19.008 C33.557,17.676 36.723,17 40,17 C43.278,17 46.444,17.676 49.409,19.008 L48.591,20.832 C45.884,19.617 42.993,19 40,19 C37.007,19 34.116,19.617 31.409,20.832 L31.409,20.832 Z M59.922,28.499 C60.873,30.144 61.617,31.903 62.134,33.728 L60.21,34.273 C59.739,32.607 59.06,31.001 58.192,29.501 L59.922,28.499 Z M60.21,45.728 L62.134,46.273 C61.617,48.098 60.873,49.857 59.922,51.501 L58.192,50.499 C59.06,48.999 59.739,47.394 60.21,45.728 L60.21,45.728 Z M48.591,59.169 L49.409,60.993 C46.444,62.325 43.278,63 40,63 C36.723,63 33.557,62.325 30.591,60.993 L31.409,59.169 C34.116,60.384 37.007,61 40,61 C42.993,61 45.884,60.384 48.591,59.169 L48.591,59.169 Z M25,59 C23.346,59 22,57.655 22,56 C22,54.346 23.346,53 25,53 C26.655,53 28,54.346 28,56 C28,57.655 26.655,59 25,59 L25,59 Z M25,51 C22.243,51 20,53.244 20,56 C20,58.757 22.243,61 25,61 C27.757,61 30,58.757 30,56 C30,53.244 27.757,51 25,51 L25,51 Z M55,59 C53.346,59 52,57.655 52,56 C52,54.346 53.346,53 55,53 C56.655,53 58,54.346 58,56 C58,57.655 56.655,59 55,59 L55,59 Z M55,51 C52.243,51 50,53.244 50,56 C50,58.757 52.243,61 55,61 C57.757,61 60,58.757 60,56 C60,53.244 57.757,51 55,51 L55,51 Z M16,40 C16,38.346 17.346,37 19,37 C20.655,37 22,38.346 22,40 C22,41.655 20.655,43 19,43 C17.346,43 16,41.655 16,40 L16,40 Z M23.899,41 L28.594,41 L27.295,42.291 L28.705,43.709 L31.705,40.727 C31.894,40.54 31.999,40.286 32,40.02 C32.001,39.755 31.897,39.5 31.709,39.312 L28.709,36.295 L27.291,37.706 L28.578,39 L23.899,39 C23.435,36.721 21.414,35 19,35 C16.243,35 14,37.244 14,40 C14,42.757 16.243,45 19,45 C21.414,45 23.435,43.28 23.899,41 L23.899,41 Z M62,43 C60.346,43 59,41.655 59,40 C59,38.346 60.346,37 62,37 C63.655,37 65,38.346 65,40 C65,41.655 63.655,43 62,43 L62,43 Z M62,35 C59.243,35 57,37.244 57,40 C57,42.757 59.243,45 62,45 C64.757,45 67,42.757 67,40 C67,37.244 64.757,35 62,35 L62,35 Z M25,21 C26.655,21 28,22.346 28,24 C28,25.655 26.655,27 25,27 C23.346,27 22,25.655 22,24 C22,22.346 23.346,21 25,21 L25,21 Z M25,29 C27.757,29 30,26.757 30,24 C30,21.244 27.757,19 25,19 C22.243,19 20,21.244 20,24 C20,26.757 22.243,29 25,29 L25,29 Z M55,21 C56.655,21 58,22.346 58,24 C58,25.655 56.655,27 55,27 C53.346,27 52,25.655 52,24 C52,22.346 53.346,21 55,21 L55,21 Z M55,29 C57.757,29 60,26.757 60,24 C60,21.244 57.757,19 55,19 C52.243,19 50,21.244 50,24 C50,26.757 52.243,29 55,29 L55,29 Z M50.4,42.201 L51.999,41 L48,41 L48,39 L52,39 L50.401,37.801 L51.6,36.2 L55.6,39.199 C55.852,39.388 56,39.684 56,39.999 C56,40.313 55.852,40.61 55.601,40.799 L51.601,43.8 L50.4,42.201 Z M45.855,45.868 C44.056,45.172 42.028,44.824 40,44.824 C37.973,44.824 35.945,45.172 34.146,45.868 C34.827,44.125 35.193,42.123 35.193,40 C35.193,37.878 34.827,35.876 34.146,34.133 C37.743,35.525 42.257,35.525 45.855,34.133 C45.173,35.876 44.808,37.878 44.808,40 C44.808,42.123 45.173,44.125 45.855,45.868 L45.855,45.868 Z M49.707,48.293 C47.892,46.478 46.808,43.378 46.808,40 C46.808,36.623 47.892,33.523 49.707,31.707 C49.903,31.512 50,31.256 50,31 C50,30.745 49.903,30.489 49.707,30.293 C49.317,29.903 48.684,29.903 48.293,30.293 C44.418,34.168 35.582,34.168 31.707,30.293 C31.317,29.903 30.684,29.903 30.293,30.293 C30.098,30.489 30,30.745 30,31 C30,31.256 30.098,31.512 30.293,31.707 C32.109,33.523 33.193,36.623 33.193,40 C33.193,43.378 32.109,46.478 30.293,48.293 C30.098,48.489 30,48.745 30,49 C30,49.256 30.098,49.512 30.293,49.707 C30.684,50.098 31.317,50.098 31.707,49.707 C35.582,45.832 44.418,45.832 48.293,49.707 C48.489,49.903 48.744,50 49,50 C49.256,50 49.512,49.903 49.707,49.707 C49.903,49.512 50,49.256 50,49 C50,48.745 49.903,48.489 49.707,48.293 L49.707,48.293 Z" id="Amazon-MQ-Icon_64_Squid" fill="#FFFFFF"></path>
    </g>
</svg>
